fs/wallet_credit_card_16_filled.svg

<svg viewBox="0 0 16 16" fill="none" xmlns="http://www.w3.org/2000/svg" height="1em" width="1em">
  <path d="M9.36803 1.2216C8.93691 0.869515 8.30127 0.937223 7.95399 1.37222L5.05775 5.00001H6.33734L8.73549 1.99613L9.50497 2.62454L7.57422 5.00084H8.86269L10.2795 3.25707L11.9979 4.66048L11.6999 5.00001H12C12.3064 5.00001 12.6021 5.04594 12.8805 5.13128C13.1006 4.71961 13.0082 4.19438 12.6305 3.88595L9.36803 1.2216ZM3 5.5C3 5.22386 3.22386 5 3.5 5H4.05762L4.85254 4H3.5C2.67157 4 2 4.67157 2 5.5V11.5C2 12.8807 3.11929 14 4.5 14H12C13.1046 14 14 13.1046 14 12V8C14 6.89543 13.1046 6 12 6H3.5C3.22386 6 3 5.77614 3 5.5ZM10.5 10H11.5C11.7761 10 12 10.2239 12 10.5C12 10.7761 11.7761 11 11.5 11H10.5C10.2239 11 10 10.7761 10 10.5C10 10.2239 10.2239 10 10.5 10Z" fill="#212121"/>
</svg>

<svg viewBox="0 0 16 16" fill="none" xmlns="http://www.w3.org/2000/svg" height="1em" width="1em">
  <path d="M9.368 1.222a1 1 0 0 0-1.414.15L5.058 5h1.28l2.397-3.004.77.629L7.575 5h1.288l1.417-1.744 1.718 1.403L11.7 5h.3a3 3 0 0 1 .88.131 1 1 0 0 0-.25-1.245L9.368 1.222ZM3 5.5a.5.5 0 0 1 .5-.5h.558l.795-1H3.5A1.5 1.5 0 0 0 2 5.5v6A2.5 2.5 0 0 0 4.5 14H12a2 2 0 0 0 2-2V8a2 2 0 0 0-2-2H3.5a.5.5 0 0 1-.5-.5Zm7.5 4.5h1a.5.5 0 0 1 0 1h-1a.5.5 0 0 1 0-1Z" fill="#212121"/>
</svg>
